build/documents/ScanRedoSolid.svg

<svg xmlns="http://www.w3.org/2000/svg" fill="none" viewBox="0 0 24 24" focusable="false"><path d="M0 0H24V24H0z"/><path fill="#74767B" fill-rule="evenodd" d="M6.99987 3C5.34301 3 3.99987 4.34315 3.99987 6L3.99987 11.35L2.64853 11.35C2.28955 11.35 1.99854 11.641 1.99854 12C1.99854 12.359 2.28955 12.65 2.64853 12.65L21.3512 12.65C21.7102 12.65 22.0012 12.359 22.0012 12C22.0012 11.641 21.7102 11.35 21.3512 11.35L19.9999 11.35L19.9999 9.29679C19.9999 8.46926 19.658 7.67849 19.0553 7.11153L15.5502 3.81474C14.9937 3.29139 14.2586 3 13.4948 3L6.99987 3ZM12.1631 14.4241C12.2783 14.2138 12.1326 13.9444 11.8929 13.9444L4.29987 13.9444C4.13418 13.9444 3.99987 14.0788 3.99987 14.2444L3.99987 18C3.99987 19.6569 5.34301 21 6.99987 21L11.8631 21C12.1014 21 12.2473 20.7335 12.1348 20.5235C11.6521 19.6228 11.3784 18.5933 11.3784 17.5C11.3784 16.3854 11.6629 15.3372 12.1631 14.4241ZM14.9888 8.99986L18.3904 8.99986C18.6617 8.99986 18.7937 8.66829 18.5965 8.48187L14.1949 4.32027C14.0037 4.13942 13.6888 4.27502 13.6888 4.53826L13.6888 7.69986C13.6888 8.41784 14.2709 8.99986 14.9888 8.99986ZM17.9741 21.3524C16.0317 21.3524 14.425 19.9148 14.16 18.0455L13.7527 18.4602C13.5012 18.7163 13.0896 18.72 12.8335 18.4684C12.5774 18.2169 12.5738 17.8053 12.8253 17.5492L14.3754 15.9711C14.6269 15.715 15.0385 15.7114 15.2946 15.9629L16.8727 17.513C17.1288 17.7645 17.1325 18.1761 16.8809 18.4322C16.6294 18.6883 16.2178 18.692 15.9617 18.4404L15.461 17.9486C15.673 19.1443 16.7175 20.0524 17.9741 20.0524C19.3838 20.0524 20.5265 18.9096 20.5265 17.5C20.5265 16.0903 19.3838 14.9476 17.9741 14.9476C17.6797 14.9476 17.3982 14.9972 17.1367 15.0879C16.7976 15.2056 16.4273 15.0261 16.3095 14.687C16.1918 14.3479 16.3713 13.9775 16.7105 13.8598C17.1072 13.7221 17.5326 13.6476 17.9741 13.6476C20.1017 13.6476 21.8265 15.3724 21.8265 17.5C21.8265 19.6276 20.1017 21.3524 17.9741 21.3524Z"/></svg>

<svg xmlns="http://www.w3.org/2000/svg" fill="none" viewBox="0 0 24 24" focusable="false"><path fill="#74767B" fill-rule="evenodd" d="M6.99 3c-1.65 0-3 1.34-3 3v5.35H2.64c-.36 0-.65.29-.65.65 0 .35.29.65.65.65h18.71c.36 0 .65-.3.65-.65 0-.36-.29-.65-.65-.65h-1.36V9.29c0-.83-.34-1.62-.94-2.18l-3.5-3.3c-.56-.52-1.3-.81-2.06-.81zm5.17 11.42c.11-.21-.03-.48-.27-.48h-7.6a.3.3 0 0 0-.3.3V18c0 1.65 1.35 3 3 3h4.87c.24 0 .38-.27.27-.48a6.38 6.38 0 0 1 .03-6.1m2.82-5.43h3.41c.27 0 .4-.33.2-.51l-4.4-4.16a.3.3 0 0 0-.51.21v3.16c0 .72.59 1.3 1.3 1.3m2.99 12.36a3.85 3.85 0 0 1-3.81-3.31l-.41.42c-.25.25-.67.25-.92 0a.65.65 0 0 1-.01-.92l1.55-1.57c.25-.26.66-.26.92-.01l1.58 1.55c.25.25.26.66.01.92-.26.25-.67.26-.92.01l-.5-.5c.21 1.2 1.25 2.11 2.51 2.11a2.554 2.554 0 1 0-.84-4.97.65.65 0 0 1-.83-.4c-.11-.34.07-.71.41-.83a3.854 3.854 0 0 1 5.11 3.65c0 2.12-1.72 3.85-3.85 3.85"/></svg>
